X: 35
T:Balls Hornpipe(). GS.035
M:4/4
L:1/8
S:George Spencer m/s, Leeds,1831
R:Hornpipe
O:England
A:Leeds
N:Title looks like 'Balbs' Hornpipe.
H:1831
Z:vmp.Cherri Graebe
K:G major
D2 | G2 BG A2 cA | B2 dB G2B2 | c2 ec B2 dB |
  ABAG GFED | G2 BG A2 cA |!
 B2 dB c2 ec | cBAG D2f2 | g2 G2G2 :||z2| gfge edcB | dfge edcB |! ca2 c
 B
g2 B | A2 BG GFED | G2 BG A2 cA | BcdB c2 ed  | 
cBAG D2 f2 | g2G2G2 :||
